X:165
T:Cuz in Curten's Kitchen
C:Terence "Cuz" Teahan
B:Terry "Cuz" Teahan "Sliabh Luachra on Parade" 1980
Z:Patrick Cavanagh
M:4/4
L:1/8
R:Reel
K:G
| dege BedB | AGAB GED2 | B/c/d gd gedB | Bcc/B/A GED2 | 
dege BedB | AGAB GED2 | GBBB dBBB | G2AG EGG2 | 
|: Adfd edfd | B/c/d AF BEE2 | GAGE AGEG | EGAG EGG2 :|| 

